X:032
T:Courting Them All (reel) 
B:CRE3.119 (Ag SuirÃÂÃÂÃÂÃÂ­ Leo ar Fad)
F:file ID: cre.3/032court
R:reel
M:C
L:1/8
Q:180
K:D
d/c/d AF d2fe|dAFA GEED|dAFA d2ef|gbag fdd2:|
a2fd adfd|a2fa bgeg|1 a2fd adfd|gbag fdd2:|
[2 (3aba (3gag (3fgf (3efe|Abag fdd2|]

%%%

